!!!SOCIAL_FUNCTION:	songs of the turkey dance
!!!PDT:	1922
!!!OTL: No_34_Turkey_Dance_Song_(e).krn
!!!REG: Southwest
!!!LANG: Non-Tone
!!!LING_GROUP: Uto-Aztecan
**kern	**kern
*staff2	*staff1
=1-	=1-
*clefF4	*clefF4
*k[f#c#g#d#a#]	*k[f#c#g#d#a#]
*M3/4	*M3/4
8GG#/L	[4f#\
8GG#/J	.
8GG#/L	16f#\LL]
.	16g#\
8GG#/J	16f#\
.	16e\JJ
8GG#/L	8.d#\L
8GG#/J	.
.	16B\Jk
=2	=2
2.r	[4d#\
.	16d#\LL]
.	16e\
.	16d#\
.	16c#\JJ
.	8.B\L
.	16B\Jk
=3	=3
2.r	[2B\
.	8.B\L]
.	16B\Jk
=4!|:	=4!|:
2.r	[4d#\
.	16d#\LL]
.	16e\
.	16d#\
.	16c#\JJ
.	8.B\L
.	16G#\Jk
=5	=5
2.r	[4B\
.	16B\LL]
.	16c#\
.	16B\
.	16G#\JJ
.	8.F#\L
.	16D#\Jk
=6	=6
2.r	[4F#\
.	16F#\LL]
.	16G#\
.	16F#\
.	16E\JJ
.	8.D#/L
.	16BB/Jk
=7	=7
2.r	[4D#\
.	16D#\LL]
.	16E\
.	16D#\
.	16C#\JJ
.	8.BB/L
.	16BB/Jk
=8	=8
2.r	2.BB/
==:|!	==:|!
*-	*-
